X: 34859
T: Robbie Bairnson
R: reel
M: 4/4
K: Gmajor
D2|:GFGA Bc^cd|FDDD FGAF|1 GABc ^cdBG|FDFAG2GD:|2 GABc defg|ecAc BGBd||
g2gf edcB|a2ag fdd^c|defg egdB|cAFA BGBd|
g2gf edcB|a2ag fdef|gbfg egdB|cAFAG2GD||

